dist/images/joy/communications4.svg

<svg width="127" height="126" viewBox="0 0 127 126" fill="none" xmlns="http://www.w3.org/2000/svg">
<circle cx="63.5" cy="63" r="61.5" stroke="#E2704C" stroke-width="3"/>
<g clip-path="url(#clip0)">
<path d="M88.1387 33H37.8613C34.9051 33 32.5 35.4051 32.5 38.3613V88.6387C32.5 91.5949 34.9051 94 37.8613 94H88.1387C91.0949 94 93.5 91.5949 93.5 88.6387V38.3613C93.5 35.4051 91.0949 33 88.1387 33ZM89.9258 88.6387C89.9258 89.6241 89.1241 90.4258 88.1387 90.4258H37.8613C36.8759 90.4258 36.0742 89.6241 36.0742 88.6387V38.3613C36.0742 37.3759 36.8759 36.5742 37.8613 36.5742H88.1387C89.1241 36.5742 89.9258 37.3759 89.9258 38.3613V88.6387Z" fill="#373737"/>
<path d="M63 42.6504C51.5035 42.6504 42.1504 52.0035 42.1504 63.5C42.1504 74.9965 51.5035 84.3496 63 84.3496C74.4965 84.3496 83.8496 74.9965 83.8496 63.5C83.8496 52.0035 74.4965 42.6504 63 42.6504ZM63 80.7754C53.4743 80.7754 45.7246 73.0257 45.7246 63.5C45.7246 53.9743 53.4743 46.2246 63 46.2246C72.5257 46.2246 80.2754 53.9743 80.2754 63.5C80.2754 73.0257 72.5257 80.7754 63 80.7754Z" fill="#373737"/>
<path d="M54.7793 58.7344C52.1515 58.7344 50.0137 60.8722 50.0137 63.5C50.0137 66.1278 52.1515 68.2656 54.7793 68.2656C57.4071 68.2656 59.5449 66.1278 59.5449 63.5C59.5449 60.8722 57.4071 58.7344 54.7793 58.7344ZM54.7793 64.6914C54.1224 64.6914 53.5879 64.1569 53.5879 63.5C53.5879 62.8431 54.1224 62.3086 54.7793 62.3086C55.4362 62.3086 55.9707 62.8431 55.9707 63.5C55.9707 64.1569 55.4362 64.6914 54.7793 64.6914Z" fill="#373737"/>
<path d="M71.2207 58.7344C68.5929 58.7344 66.4551 60.8722 66.4551 63.5C66.4551 66.1278 68.5929 68.2656 71.2207 68.2656C73.8485 68.2656 75.9863 66.1278 75.9863 63.5C75.9863 60.8722 73.8485 58.7344 71.2207 58.7344ZM71.2207 64.6914C70.5638 64.6914 70.0293 64.1569 70.0293 63.5C70.0293 62.8431 70.5638 62.3086 71.2207 62.3086C71.8776 62.3086 72.4121 62.8431 72.4121 63.5C72.4121 64.1569 71.8776 64.6914 71.2207 64.6914Z" fill="#373737"/>
</g>
<defs>
<clipPath id="clip0">
<rect width="61" height="61" fill="white" transform="translate(32.5 33)"/>
</clipPath>
</defs>
</svg>

<svg width="127" height="126" fill="none" xmlns="http://www.w3.org/2000/svg"><circle cx="63.5" cy="63" r="61.5" stroke="#E2704C" stroke-width="3"/><g clip-path="url(#clip0)" fill="#373737"><path d="M88.139 33H37.86a5.367 5.367 0 00-5.361 5.361V88.64A5.367 5.367 0 0037.861 94H88.14a5.367 5.367 0 005.361-5.361V38.36A5.367 5.367 0 0088.139 33zm1.787 55.639a1.79 1.79 0 01-1.787 1.787H37.86a1.79 1.79 0 01-1.787-1.787V38.36a1.79 1.79 0 011.787-1.787h50.28a1.79 1.79 0 011.787 1.787v50.28z"/><path d="M63 42.65c-11.496 0-20.85 9.354-20.85 20.85 0 11.496 9.354 20.85 20.85 20.85 11.496 0 20.85-9.353 20.85-20.85 0-11.496-9.353-20.85-20.85-20.85zm0 38.125c-9.526 0-17.275-7.75-17.275-17.275 0-9.526 7.75-17.275 17.275-17.275 9.526 0 17.275 7.75 17.275 17.275 0 9.526-7.75 17.275-17.275 17.275z"/><path d="M54.78 58.734a4.77 4.77 0 00-4.766 4.766 4.77 4.77 0 004.765 4.766 4.77 4.77 0 004.766-4.766 4.77 4.77 0 00-4.766-4.766zm0 5.957a1.193 1.193 0 01-1.192-1.191 1.192 1.192 0 111.191 1.191zm16.44-5.957a4.77 4.77 0 00-4.765 4.766 4.77 4.77 0 004.766 4.766 4.77 4.77 0 004.765-4.766 4.77 4.77 0 00-4.765-4.766zm0 5.957a1.193 1.193 0 01-1.19-1.191 1.192 1.192 0 111.191 1.191z"/></g><defs><clipPath id="clip0"><path fill="#fff" transform="translate(32.5 33)" d="M0 0h61v61H0z"/></clipPath></defs></svg>
